X:1
T: Chirps and Grain
C:Gordy Euler
R:Reel
Q: 232
K:D
M:4/4
L:1/8
|:fe dc ed cB|A2 FA DA FA|fe dc dA FA|EA FA GA de|
fe dc d=c BA|B2 GB dB dB|A2 af ge ce|d2 f2 d4:|
|:A2 f2 A2 e2|fg af d2 d2|A2 f2 A2 e2|fg af e4|
A2 f2 A2 e2|fg af g2 g2|a2 af ge ce|d2 f2 d4:|
